X: 3
T: A búzának meg kell érni
M:4/4
L:1/4
K:D
DFAA | ABAG | 
B>A GG | G<A GF |
F<F A A | GFED |
EEEE | E>G B<A |
GFE>F | E<D D z |
W:A búzának meg kell érni,
W:Szárazon kell learatni,
W:Szivemnek meg kell hasadni,
W:mert minden nap új bú éri,
W:ejahaja, csuhajja.
W:
W: Ne menj kislány a tarlóra,
W: Gyönge vagy még a sarlóra
W: Elvágod a gyönge kezed,
W: Ki süt nékem lágy kenyret
W: ejehaja, csuhaja.
W:
W: Édesanyám mondta nékem,
W: Mindek a szereté nékem,
W: De én arra nem hallgattam,
W: Titkon szeretőt tartottam, 
W: ejehaja, csuhaja
W: 
W: Titkon szeress, ne tudja más,
W: Tőled várok vigasztalást,
W: Nem szerettem soha senkit,
W: Csak a magam szeretőjét,
W: ejehaja, csuhaja

